images/chokolate-logo.svg

<svg width="21" height="24" viewBox="0 0 21 24" fill="none" xmlns="http://www.w3.org/2000/svg">
<path d="M15.2259 17.9097L4.58677 11.2616M7.52066 6.44905L18.1598 13.0971M6.97245 19.3982L15.7741 4.96051M19.3823 11.0919C17.1025 9.6673 16.207 8.55395 17.674 6.14767L10.4546 1.63647L1.65287 16.0742L12.292 22.7223L19.3823 11.0919Z" stroke="#FD9222" stroke-width="2" stroke-linecap="round" stroke-linejoin="round"/>
</svg>

<svg xmlns="http://www.w3.org/2000/svg" fill="none" viewBox="0 0 21 24">
  <path stroke="#FD9222" stroke-linecap="round" stroke-linejoin="round" stroke-width="2" d="m15.226 17.91-10.64-6.648m2.935-4.813 10.639 6.648M6.972 19.398l8.802-14.437m3.608 6.13c-2.28-1.424-3.175-2.537-1.708-4.943l-7.22-4.512-8.801 14.438 10.639 6.648 7.09-11.63Z"/>
</svg>
